public/assets/icon_wine.svg

<svg width="25" height="25" viewBox="0 0 25 25"
    xmlns="http://www.w3.org/2000/svg">
    <path d="M13.0208 21.8854V13.5146C16.5115 13.2469 19.2708 10.3281 19.2708 6.76982C19.2708 5.29795 18.4844 2.85317 17.9094 1.06772L17.6844 0.3646C17.6156 0.1479 17.4156 0 17.1875 0H7.88959C7.67294 0 7.47811 0.134375 7.40209 0.336475C6.89896 1.66982 5.72919 4.96357 5.72919 6.77085C5.72919 10.3281 8.48856 13.2479 11.9792 13.5156V21.8865C9.36566 21.9927 6.77084 22.8938 6.77084 24.4802C6.77084 24.7667 7.00419 25 7.29169 25H17.7083C17.9958 25 18.2292 24.7667 18.2292 24.4792C18.2291 22.8927 15.6333 21.9917 13.0208 21.8854ZM6.79686 7.29165C6.78124 7.11977 6.77084 6.94688 6.77084 6.7708C6.77084 5.5062 7.51356 3.04478 8.25106 1.04165H16.8073L16.9177 1.38853C17.4396 3.0104 18.2292 5.4625 18.2292 6.7708C18.2292 6.94683 18.2188 7.11977 18.2032 7.29165H6.79686Z" />
</svg>

<svg width="25" height="25" xmlns="http://www.w3.org/2000/svg"><path d="M13.02 21.885v-8.37c3.492-.268 6.25-3.187 6.25-6.745 0-1.472-.786-3.917-1.36-5.702l-.226-.703A.521.521 0 0017.187 0H7.89a.521.521 0 00-.488.336C6.9 1.67 5.73 4.964 5.73 6.771c0 3.557 2.76 6.477 6.25 6.745v8.37c-2.613.107-5.208 1.008-5.208 2.594 0 .287.233.52.52.52h10.417c.288 0 .521-.233.521-.52 0-1.587-2.596-2.488-5.208-2.595zM6.798 7.292a5.737 5.737 0 01-.026-.521c0-1.265.743-3.726 1.48-5.73h8.556l.11.348C17.44 3.01 18.23 5.463 18.23 6.77c0 .176-.01.349-.026.52H6.797z"/></svg>
